src/ios-pie.svg

<?xml version="1.0" encoding="utf-8"?>
<!-- Generated by IcoMoon.io -->
<!DOCTYPE svg PUBLIC "-//W3C//DTD SVG 1.1//EN" "http://www.w3.org/Graphics/SVG/1.1/DTD/svg11.dtd">
<svg version="1.1" xmlns="http://www.w3.org/2000/svg" xmlns:xlink="http://www.w3.org/1999/xlink" width="512" height="512" viewBox="0 0 512 512">
<path fill="#000000" d="M272 64v224l-197.755 49.376c27.408 82.845 105.596 142.624 197.63 142.624 114.875 0 208.125-93.125 208.125-208s-93-208-208-208v0z"></path>
<path fill="#000000" d="M256 32h-5.5c-160 0-218.5 116.25-218.5 207.287 0 0 0.25 56.666 18.91 88.291l205.090-52.005v-243.573z"></path>
</svg>

<?xml version="1.0" encoding="utf-8"?>
<!-- Generator: Adobe Illustrator 16.2.1, SVG Export Plug-In . SVG Version: 6.00 Build 0)  -->
<!DOCTYPE svg PUBLIC "-//W3C//DTD SVG 1.1//EN" "http://www.w3.org/Graphics/SVG/1.1/DTD/svg11.dtd">
<svg version="1.1" id="Layer_1" xmlns="http://www.w3.org/2000/svg" xmlns:xlink="http://www.w3.org/1999/xlink" x="0px" y="0px"
	 width="512px" height="512px" viewBox="0 0 512 512" enable-background="new 0 0 512 512" xml:space="preserve">
<g>
	<path d="M272,64v224L74.245,337.376C101.653,420.221,179.841,480,271.875,480C386.75,480,480,386.875,480,272S387,64,272,64L272,64
		z"/>
	<path d="M256,32h-5.5C90.5,32,32,148.25,32,239.287c0,0,0.25,56.666,18.91,88.291L256,275.573V32L256,32z"/>
</g>
</svg>
